icons/medicine-bottle-outline.svg

<svg width="24" height="24" viewBox="0 0 24 24" fill="none" xmlns="http://www.w3.org/2000/svg">
<path fill-rule="evenodd" clip-rule="evenodd" d="M4.03754 2C13.4332 2 18.7541 2 20 2C21.3333 2 22 2.66604 22 3.99813C22 5.33021 22 6.32927 22 6.99532C22 7.66136 21.6691 7.99438 21.0074 7.99438L21 20C21 21.3333 20.3317 22 18.9952 22C16.9903 22 6.99752 22 4.99876 22C3.66625 22 3 21.3333 3 20V7.99438C2.33333 7.99438 2 7.66136 2 6.99532C2 6.32927 2 5.33021 2 3.99813C2 2.66604 2.67918 2 4.03754 2ZM4 3.99813V5.99625H20V3.99813H4ZM5 7.99438V19.9831H19V7.99438H5ZM11.0004 11C11.0004 10.3333 11.3337 10 12.0004 10C12.6671 10 13.0004 10.3333 13.0004 11V13L15.0025 12.9965C15.6675 12.9988 16 13.3333 16 14C16 14.6667 15.6675 15 15.0025 15H13.0004V17C13.0004 17.6667 12.6671 18 12.0004 18C11.3337 18 11.0004 17.6667 11.0004 17V15H8.99658C8.33219 15 8 14.6667 8 14C8 13.3333 8.33219 13 8.99658 13L11.0004 12.9965V11Z" fill="#3A3A47"/>
</svg>

<svg xmlns="http://www.w3.org/2000/svg" width="24" height="24" viewBox="0 0 24 24">
    <path fill="#3A3A47" fill-rule="evenodd" d="M20 2c1.333 0 2 .666 2 1.998v2.997c0 .666-.33 1-.993 1L21 20c0 1.333-.668 2-2.005 2H5C3.666 22 3 21.333 3 20V7.994c-.667 0-1-.333-1-.999V3.998C2 2.666 2.68 2 4.038 2H20zm-1 5.994H5v11.99h14V7.993zM12 10c.667 0 1 .333 1 1v2l2.002-.004C15.667 13 16 13.333 16 14s-.333 1-.998 1H13v2c0 .667-.333 1-1 1-.666 0-1-.333-1-1v-2H8.997C8.332 15 8 14.667 8 14s.332-1 .997-1L11 12.996V11c0-.667.334-1 1-1zm8-6.002H4v1.998h16V3.998z"/>
</svg>
